svgs/light/object-intersect.svg

<svg xmlns="http://www.w3.org/2000/svg" viewBox="0 0 512 512"><!--! Font Awesome Pro 6.5.1 by @fontawesome - https://fontawesome.com License - https://fontawesome.com/license (Commercial License) Copyright 2023 Fonticons, Inc. --><path d="M96 32H64C46.3 32 32 46.3 32 64V96H0V64C0 28.7 28.7 0 64 0H96V32zm32 0V0h96V32H128zM0 128H32v96H0V128zM288 32H256V0h32c35.3 0 64 28.7 64 64v64H320V64c0-17.7-14.3-32-32-32zm32 128h32v32 64 32c0 35.3-28.7 64-64 64H224 192 160V320 256 224c0-35.3 28.7-64 64-64h64 32zM160 384h32v64c0 17.7 14.3 32 32 32h32v32H224c-35.3 0-64-28.7-64-64V384zm-32-32H64c-35.3 0-64-28.7-64-64V256H32v32c0 17.7 14.3 32 32 32h64v32zM384 192V160h64c35.3 0 64 28.7 64 64v32H480V224c0-17.7-14.3-32-32-32H384zM288 512V480h96v32H288zm160 0H416V480h32c17.7 0 32-14.3 32-32V416h32v32c0 35.3-28.7 64-64 64zm64-128H480V288h32v96zM224 192c-17.7 0-32 14.3-32 32v96h96c17.7 0 32-14.3 32-32V192H224z"/></svg>

<svg xmlns="http://www.w3.org/2000/svg" viewBox="0 0 512 512"><!--! Font Awesome Pro 6.1.1 by @fontawesome - https://fontawesome.com License - https://fontawesome.com/license (Commercial License) Copyright 2022 Fonticons, Inc. --><path d="M96 32H64C46.33 32 32 46.33 32 64V96H0V64C0 28.65 28.65 0 64 0H96V32zM128 0H224V32H128V0zM0 128H32V224H0V128zM288 32H256V0H288C323.3 0 352 28.65 352 64V128H320V64C320 46.33 305.7 32 288 32zM352 160V288C352 323.3 323.3 352 288 352H160V224C160 188.7 188.7 160 224 160H352zM192 224V320H288C305.7 320 320 305.7 320 288V192H224C206.3 192 192 206.3 192 224zM192 384V448C192 465.7 206.3 480 224 480H256V512H224C188.7 512 160 483.3 160 448V384H192zM64 352C28.65 352 0 323.3 0 288V256H32V288C32 305.7 46.33 320 64 320H128V352H64zM384 160H448C483.3 160 512 188.7 512 224V256H480V224C480 206.3 465.7 192 448 192H384V160zM288 480H384V512H288V480zM448 512H416V480H448C465.7 480 480 465.7 480 448V416H512V448C512 483.3 483.3 512 448 512zM512 384H480V288H512V384z"/></svg>
